X:1
T: The Auld Wife ayont the Fire
C:
R:Reel
I:speed 232
Q:232
K:G
M:4/4
L:1/8
|:c|cB AG FG Ac|cB AG Gf gd|cB AG FG Ac|Bd AB G3c|
cB AG FG Ac|cB AG Gf gd|cB AG FG Ac|Bd AB G3c|
Bd de cd cA|Bd dg g1/2f1/2e1/2f1/2 gd|Bd de cd cA|Bd AB G3c|
Bd de cd cA|Bd dg g1/2f1/2e1/2f1/2 gd|Bd de cd cA|Bd AB G3:|
